!!!Genre:	Sher
!!!Mode:	Freygish
!!!Listening/dance:	dance
!!!One_Mode:	yes
**kern
*thru
*I"P1
*clefG2
*k[b-e-a-]
*G:frey
*M2/4
*>A
8g
=1
(16gLL
16bn)
16b
16bJJ
(16gLL
16b)
16b
16bJJ
=2
(16gLL
16bn)
16b
16bJJ
(16gLL
16b)
16b
16bJJ
=3
8ddL
16ccL
16ddJJ
24ccLL
24dd
24ccJ
8bnJ
=4
8bnL
16a-L
16bJJ
24a-LL
24b
24a-J
8gJ
=5
8gL
8a-J
8bnL
(8qdd/
8ccJ)
=6
(8bnL
8g)
(8g
8ccJ)
=7
[2bnt
=8
4b]
8r
*>B
8g
=9!|:
16bnLL
16cc
16b
16ccJJ
4dd
=10
16ccLL
16dd
16cc
16ddJJ
4cc
=11
16bnLL
16cc
16b
16a-JJ
8gL
8a-J
=12
8bn
(8qdd/
8ccJ)
4dd
=13
16bnLL
16cc
16b
16ccJJ
4dd
=14
16bnLL
16cc
16b
16ccJJ
4b
=15
16ffLL
16ee-
16dd
16ccJJ
16bnLL
16cc
16b
16a-JJ
=16
4.g
*>C
8g
=17:|!
4.dd
8g
=18
4.dd
8g
=19
8ddtL
8g
8ddt
8gJ
=20
8ddL
8gJ
4dd
=21!|:
(16ee-LL
16ddJ
8ccJ)
(16ddLL
16ccJ
8bnJ)
=22
(16ee-LL
16ddJ
8ccJ)
(16ddLL
16ccJ
8bnJ)
=23
(16ee-LL
16ddJ
8ccJ)
(16ddLL
16ccJ
8bnJ)
=24
(16ccLL
16bnJ
8a-J)
(16bLL
16a-J
8gJ)
=25
8gL
8a-
8bnJ
(8qdd/
8ccJ)
=26
(8bnL
8g)
(8g
8ccJ)
*>C1
=27
[2bn
=28
4b]
4r
=29||
4.dd
(16gLL
16ddJJ
=30
2gg)
=31
8ddL
8ggJ
8ddL
8ggJ
=32
4dd
8r
8g
*>C2
=33:|!
[2bn
=34
4b]
4r
=||
*-
